X: 1
T: For Erin I'd Not Tell Her Name
O: Ireland
R: slow air
M: 4/4
L: 1/8
K: D
de \
| "D"fA- AA "G"Bd- de | "D"f6 de | "D"fA- AA "G"Bd- df | "A7"e6 de \
| "D"fA- AA "G"Bg- ge | "D"f6 ed | "D"BA- AA "G"Bd- "A7"de | "D"d6 |]
fg \
| "D"a2 fe d2 fa | "G"b4 [d'3b3] b | "D"af- fe d2 fd | "A"e6 ag \
| "D"fA- AA "G"Bg- ge | "D"f6 ed | "D"BA- AA "G"Bd- "A7"de | "D"d6 |]
